icons-common/arrow-top.svg

<svg height="1em" width="auto" viewBox="0 0 105 105" fill="currentColor" xmlns="http://www.w3.org/2000/svg">
    <path d="M63.6788 42.1416L49.4667 28.4468H55.4485L41.2788 42.1416C39.7939 43.5672 37.4606 43.524 36.0182 42.012C34.6606 40.5432 34.6606 38.2535 36.0182 36.8279L49.4667 22.3123C51.0788 20.541 53.8364 20.5842 55.4485 22.3123L68.897 36.7847C72.1212 40.284 67.0727 45.4249 63.6364 42.1416H63.6788Z"
          />
    <path d="M49.2968 78.9485C48.7878 62.0137 48.6181 45.1221 48.7878 28.1872C48.7878 26.1136 50.4847 24.4287 52.5211 24.4287C54.5575 24.4287 56.1696 26.1136 56.212 28.1872C56.3817 45.1221 56.212 62.0137 55.7029 78.9485C55.5756 83.0527 49.4665 83.0527 49.3393 78.9485H49.2968Z"
          />
</svg>

<svg xmlns="http://www.w3.org/2000/svg" width="auto" height="1em" fill="currentColor" viewBox="0 0 105 105">
    <path d="M63.679 42.142 49.467 28.447h5.982l-14.17 13.695a3.693 3.693 0 0 1-5.26-.13c-1.358-1.469-1.358-3.758 0-5.184l13.448-14.516c1.612-1.771 4.37-1.728 5.982 0l13.448 14.473c3.224 3.499-1.824 8.64-5.26 5.357z"/>
    <path d="M49.297 78.949a1266 1266 0 0 1-.51-50.762c0-2.073 1.698-3.758 3.734-3.758s3.649 1.685 3.691 3.758c.17 16.935 0 33.827-.51 50.761-.126 4.105-6.235 4.105-6.363 0z"/>
</svg>
